usr/share/icons/biglinux-icons-material/scalable/apps/libinput-gestures.svg

<?xml version="1.0" encoding="UTF-8" standalone="no"?>
<svg
   width="24"
   height="24"
   viewBox="0 0 6.349875 6.349875"
   version="1.1"
   id="svg5"
   sodipodi:docname="org.cunidev.gestures.svg"
   inkscape:version="1.3 (0e150ed6c4, 2023-07-21)"
   xmlns:inkscape="http://www.inkscape.org/namespaces/inkscape"
   xmlns:sodipodi="http://sodipodi.sourceforge.net/DTD/sodipodi-0.dtd"
   xmlns="http://www.w3.org/2000/svg"
   xmlns:svg="http://www.w3.org/2000/svg"
   xmlns:sketch="http://www.bohemiancoding.com/sketch/ns">
  <defs
     id="defs5">
    <radialGradient
       fx="0"
       fy="0"
       cx="0"
       cy="0"
       r="1"
       gradientUnits="userSpaceOnUse"
       gradientTransform="matrix(0,5.8207185,-5.8207185,0,3.1748145,0.26457272)"
       spreadMethod="pad"
       id="radialGradient9652-9">
      <stop
         style="stop-opacity:1;stop-color:#8fc8ff"
         offset="0"
         id="stop9648-1" />
      <stop
         style="stop-color:#359cf3;stop-opacity:1;"
         offset="1"
         id="stop9650-2" />
    </radialGradient>
  </defs>
  <sodipodi:namedview
     id="namedview5"
     pagecolor="#ffffff"
     bordercolor="#000000"
     borderopacity="0.25"
     inkscape:showpageshadow="2"
     inkscape:pageopacity="0.0"
     inkscape:pagecheckerboard="0"
     inkscape:deskcolor="#d1d1d1"
     inkscape:zoom="4.4801844"
     inkscape:cx="34.485188"
     inkscape:cy="24.664164"
     inkscape:window-width="2560"
     inkscape:window-height="998"
     inkscape:window-x="0"
     inkscape:window-y="0"
     inkscape:window-maximized="1"
     inkscape:current-layer="svg5" />
  <path
     d="m 3.1749374,0.26457811 c -2.6457814,0 -2.9103594,1.32289059 -2.9103594,2.91035929 0,2.116625 0.7937345,2.9103592 2.9103594,2.9103592 2.116625,0 2.9103592,-0.7937342 2.9103592,-2.9103592 0,-1.5874687 -0.264578,-2.91035929 -2.9103592,-2.91035929 z"
     sketch:type="MSShapeGroup"
     id="path6"
     style="font-variation-settings:normal;display:inline;vector-effect:none;fill:#4e99f3;fill-opacity:1;stroke-width:0.295341;stroke-linecap:butt;stroke-linejoin:miter;stroke-miterlimit:4;stroke-dasharray:none;stroke-dashoffset:0;stroke-opacity:1;-inkscape-stroke:none;stop-color:#000000"
     sodipodi:nodetypes="sssss"
     inkscape:label="Shape" />
  <path
     id="path9654"
     style="fill:url(#radialGradient9652-9);fill-rule:evenodd;stroke:none;stroke-width:0.352771"
     d="M 3.1749375 0.52243845 C 0.76367131 0.52243845 0.52243845 1.7281777 0.52243845 3.1749375 C 0.52243845 5.1039506 1.2459245 5.8274366 3.1749375 5.8274366 C 5.1039506 5.8274366 5.8274366 5.1039506 5.8274366 3.1749375 C 5.8274366 1.7281777 5.5862038 0.52243845 3.1749375 0.52243845 z " />
  <g
     id="g10"
     transform="translate(-2.7287666,-1.9843982)">
    <g
       fill-rule="evenodd"
       id="g9"
       transform="matrix(0.39266565,0,0,0.39266565,2.8283492,1.9282864)"
       style="stroke-width:2.5467">
      <circle
         cx="7.6729999"
         cy="5.2919998"
         r="2.1170001"
         opacity="0.15"
         style="stroke-width:2.5467;paint-order:stroke fill markers"
         id="circle7" />
      <circle
         cx="7.6729999"
         cy="5.2919998"
         r="1.587"
         opacity="0.15"
         style="stroke-width:2.5467;paint-order:stroke fill markers"
         id="circle8" />
      <circle
         cx="7.6729999"
         cy="5.2919998"
         r="1.058"
         opacity="0.15"
         style="stroke-width:2.5467;paint-order:stroke fill markers"
         id="circle9" />
    </g>
    <path
       d="m 5.8412721,3.9022166 c -0.1036637,0 -0.1806262,0.083638 -0.1869088,0.1869089 V 6.1463008 L 4.9762297,5.577721 A 0.18651618,0.18651618 0 0 0 4.6569931,5.7100493 c 0,0.047905 0.018063,0.095418 0.054973,0.1319356 l 1.1293064,1.052344 c 0,0 0.2348141,0.2493427 0.5611193,0.2493427 0.413084,0 0.7480278,-0.2787926 0.7480278,-0.6235531 V 5.2737977 A 0.12447501,0.12447501 0 0 0 7.0255515,5.1493227 H 6.9010765 V 5.7724831 H 6.7762089 V 5.0028584 A 0.12447501,0.12447501 0 0 0 6.651734,4.8783834 H 6.5268664 v 0.7696247 h -0.124475 v -1.028784 c 0,-0.051439 -0.055759,-0.093062 -0.1248677,-0.093062 -0.069109,0 -0.124475,0.041623 -0.124475,0.093454 V 5.5231404 H 6.028181 V 4.0899108 A 0.18651618,0.18651618 0 0 0 5.8412721,3.9026093 Z"
       fill="#ffffff"
       style="stroke-width:1;paint-order:normal"
       id="path9" />
  </g>
</svg>

<svg xmlns="http://www.w3.org/2000/svg" width="24" height="24" viewBox="0 0 6.35 6.35"><defs><radialGradient id="a" cx="0" cy="0" r="1" fx="0" fy="0" gradientTransform="rotate(90 1.455 1.72) scale(5.82072)" gradientUnits="userSpaceOnUse" spreadMethod="pad"><stop offset="0" style="stop-opacity:1;stop-color:#8fc8ff"/><stop offset="1" style="stop-color:#359cf3;stop-opacity:1"/></radialGradient></defs><path d="M3.175.265C.529.265.265 1.587.265 3.175c0 2.117.793 2.91 2.91 2.91s2.91-.793 2.91-2.91c0-1.588-.264-2.91-2.91-2.91z" style="font-variation-settings:normal;display:inline;vector-effect:none;fill:#4e99f3;fill-opacity:1;stroke-width:.295341;stroke-linecap:butt;stroke-linejoin:miter;stroke-miterlimit:4;stroke-dasharray:none;stroke-dashoffset:0;stroke-opacity:1;-inkscape-stroke:none;stop-color:#000"/><path d="M3.175.522C.764.522.522 1.728.522 3.175c0 1.929.724 2.652 2.653 2.652s2.652-.723 2.652-2.652c0-1.447-.24-2.653-2.652-2.653z" style="fill:url(#a);fill-rule:evenodd;stroke:none;stroke-width:.352771"/><g fill-rule="evenodd" style="stroke-width:2.5467" transform="matrix(.39267 0 0 .39267 .1 -.056)"><circle cx="7.673" cy="5.292" r="2.117" opacity=".15" style="stroke-width:2.5467;paint-order:stroke fill markers"/><circle cx="7.673" cy="5.292" r="1.587" opacity=".15" style="stroke-width:2.5467;paint-order:stroke fill markers"/><circle cx="7.673" cy="5.292" r="1.058" opacity=".15" style="stroke-width:2.5467;paint-order:stroke fill markers"/></g><path fill="#fff" d="M5.841 3.902c-.103 0-.18.084-.187.187v2.057l-.678-.568a.187.187 0 0 0-.319.132c0 .048.018.095.055.132l1.13 1.052s.234.25.56.25c.413 0 .748-.28.748-.624V5.274a.124.124 0 0 0-.124-.125H6.9v.623h-.125v-.77a.124.124 0 0 0-.124-.124h-.125v.77h-.125V4.619c0-.051-.055-.093-.124-.093-.07 0-.125.042-.125.094v.903h-.125V4.09a.187.187 0 0 0-.187-.187Z" style="stroke-width:1;paint-order:normal" transform="translate(-2.729 -1.984)"/></svg>
